images/logo-min.svg

<svg width="104" height="25" fill="none" xmlns="http://www.w3.org/2000/svg"><path d="M0 4.98074V24.1068h2.74564V10.2572h.17743l5.6407 13.8216h2.27873l5.6407-13.8122h.1774v13.8402h2.7456V4.98074h-3.5021L9.81518 19.8483h-.22414L3.50209 4.98074H0zM30.0479 24.3963c3.1285 0 5.3418-1.5409 5.9769-3.8756l-2.6429-.4763c-.5043 1.3541-1.7184 2.0452-3.306 2.0452-2.3907 0-3.997-1.5503-4.0717-4.3146h10.198v-.9899c0-5.1831-3.1005-7.20962-6.3504-7.20962-3.9971 0-6.6306 3.04452-6.6306 7.45242 0 4.4547 2.5962 7.3684 6.8267 7.3684zm-4.0344-8.7132c.1121-2.0359 1.5876-3.8009 3.857-3.8009 2.1666 0 3.5861 1.6063 3.5954 3.8009h-7.4524zM50.0495 13.2643c-.579-2.232-2.3254-3.68882-5.4259-3.68882-3.2406 0-5.538 1.70902-5.538 4.24922 0 2.0359 1.2327 3.39 3.9223 3.9877l2.4282.5323c1.3821.3082 2.0265.9246 2.0265 1.8211 0 1.1113-1.186 1.9798-3.0165 1.9798-1.6716 0-2.7456-.7191-3.0818-2.1292l-2.6989.4109c.4669 2.5402 2.5775 3.969 5.7994 3.969 3.4647 0 5.8648-1.8398 5.8648-4.436 0-2.0265-1.2887-3.2779-3.9223-3.885l-2.2787-.5229c-1.5783-.3736-2.26-.9059-2.2507-1.8771-.0093-1.102 1.1861-1.8865 2.7737-1.8865 1.737 0 2.5402.9619 2.867 1.9238l2.5309-.4483zM60.0958 9.76226H57.154V6.32554h-2.7923v3.43672h-2.1012v2.24134h2.1012v8.4704c-.0093 2.6055 1.9799 3.8663 4.1838 3.8196.8872-.0094 1.4849-.1775 1.8118-.2989l-.5043-2.3067c-.1868.0374-.5323.1214-.9806.1214-.9059 0-1.7184-.2988-1.7184-1.9144v-7.8914h2.9418V9.76226zM69.0728 24.3963c4.0437 0 6.6866-2.9604 6.6866-7.3964 0-4.464-2.6429-7.42442-6.6866-7.42442s-6.6866 2.96042-6.6866 7.42442c0 4.436 2.6429 7.3964 6.6866 7.3964zm.0093-2.3441c-2.6429 0-3.8756-2.3067-3.8756-5.0616 0-2.7457 1.2327-5.0804 3.8756-5.0804 2.6243 0 3.857 2.3347 3.857 5.0804 0 2.7549-1.2327 5.0616-3.857 5.0616zM78.2963 6.57458h.772V4.08421h1.3946c.056 0 .1089 0 .1619-.00311l1.3448 2.49348h.8965l-1.4413-2.63357c.8125-.27705 1.1923-.94011 1.1923-1.78684 0-1.12689-.6725-1.95494-2.1667-1.95494h-2.1541v6.37535zm.772-3.18767V.884082h1.3572c1.0335 0 1.432.504298 1.432 1.270088 0 .76579-.3985 1.23274-1.4195 1.23274h-1.3697zM86.8172 4.61964c0 .89653-.6848 1.30744-1.2327 1.30744-.6102 0-1.046-.44826-1.046-1.14557V1.79307h-.7346v3.03825c0 1.22028.6475 1.80552 1.544 1.80552.7222 0 1.1954-.38601 1.4195-.87163h.0498v.80937h.7347V1.79307h-.7347v2.82657zM92.2844 2.86393c-.2304-.67863-.7472-1.13312-1.6935-1.13312-1.0086 0-1.7557.57278-1.7557 1.38215 0 .65995.3922 1.10199 1.2701 1.30745l.7969.18678c.4825.11206.7098.34242.7098.6724 0 .41091-.4359.74711-1.1207.74711-.6008 0-.9775-.25838-1.1082-.77202l-.6973.17433c.1712.81248.8405 1.24519 1.8179 1.24519 1.1114 0 1.8678-.60703 1.8678-1.43197 0-.66617-.4171-1.08642-1.2701-1.29499l-.7097-.17433c-.5666-.14008-.8218-.32997-.8218-.6973 0-.41091.4358-.70976 1.021-.70976.6413 0 .9059.35488 1.0335.68486l.66-.18678zM96.8643 2.86393c-.2304-.67863-.7471-1.13312-1.6934-1.13312-1.0086 0-1.7557.57278-1.7557 1.38215 0 .65995.3922 1.10199 1.27 1.30745l.797.18678c.4825.11206.7097.34242.7097.6724 0 .41091-.4358.74711-1.1207.74711-.6008 0-.9774-.25838-1.1082-.77202l-.6973.17433c.1712.81248.8405 1.24519 1.818 1.24519 1.1113 0 1.8678-.60703 1.8678-1.43197 0-.66617-.4172-1.08642-1.2701-1.29499l-.7098-.17433c-.5665-.14008-.8218-.32997-.8218-.6973 0-.41091.4358-.70976 1.0211-.70976.6412 0 .9058.35488 1.0335.68486l.6599-.18678zM98.0574 6.57458h.7346V1.79307h-.7346v4.78151zm.3735-5.578431c.2864 0 .523-.224134.523-.498075C98.9539.224134 98.7173 0 98.4309 0s-.523.224134-.523.498074c0 .273941.2366.498075.523.498075zM101.545 6.68665c.834 0 1.27-.44827 1.419-.75957h.038v.6475h.734V3.42426c0-1.51913-1.158-1.69345-1.768-1.69345-.722 0-1.544.24904-1.918 1.12067l.698.24903c.162-.34865.545-.7222 1.245-.7222.675 0 1.009.35799 1.009.97124v.0249c0 .35488-.362.32375-1.233.43582-.887.11518-1.8555.31129-1.8555 1.40706 0 .93389.7225 1.46932 1.6315 1.46932zm.112-.65995c-.586 0-1.009-.26149-1.009-.77202 0-.56033.511-.73466 1.083-.80937.312-.03735 1.146-.12451 1.271-.27394v.6724c0 .59769-.474 1.18293-1.345 1.18293z" fill="#fff"/></svg>

<svg width="104" height="25" viewBox="0 0 104 25" fill="none" xmlns="http://www.w3.org/2000/svg">
<path d="M0 4.98074V24.1068H2.74564V10.2572H2.92307L8.56377 24.0788H10.8425L16.4832 10.2666H16.6606V24.1068H19.4062V4.98074H15.9041L9.81518 19.8483H9.59104L3.50209 4.98074H0Z" fill="white"/>
<path d="M30.0479 24.3963C33.1764 24.3963 35.3897 22.8554 36.0248 20.5207L33.3819 20.0444C32.8776 21.3985 31.6635 22.0896 30.0759 22.0896C27.6852 22.0896 26.0789 20.5393 26.0042 17.775H36.2022V16.7851C36.2022 11.602 33.1017 9.57548 29.8518 9.57548C25.8547 9.57548 23.2212 12.62 23.2212 17.0279C23.2212 21.4826 25.8174 24.3963 30.0479 24.3963ZM26.0135 15.6831C26.1256 13.6472 27.6011 11.8822 29.8705 11.8822C32.0371 11.8822 33.4566 13.4885 33.4659 15.6831H26.0135Z" fill="white"/>
<path d="M50.0495 13.2643C49.4705 11.0323 47.7241 9.57548 44.6236 9.57548C41.383 9.57548 39.0856 11.2845 39.0856 13.8247C39.0856 15.8606 40.3183 17.2147 43.0079 17.8124L45.4361 18.3447C46.8182 18.6529 47.4626 19.2693 47.4626 20.1658C47.4626 21.2771 46.2766 22.1456 44.4461 22.1456C42.7745 22.1456 41.7005 21.4265 41.3643 20.0164L38.6654 20.4273C39.1323 22.9675 41.2429 24.3963 44.4648 24.3963C47.9295 24.3963 50.3296 22.5565 50.3296 19.9603C50.3296 17.9338 49.0409 16.6824 46.4073 16.0753L44.1286 15.5524C42.5503 15.1788 41.8686 14.6465 41.8779 13.6753C41.8686 12.5733 43.064 11.7888 44.6516 11.7888C46.3886 11.7888 47.1918 12.7507 47.5186 13.7126L50.0495 13.2643Z" fill="white"/>
<path d="M60.0958 9.76226H57.154V6.32554H54.3617V9.76226H52.2605V12.0036H54.3617V20.474C54.3524 23.0795 56.3416 24.3403 58.5455 24.2936C59.4327 24.2842 60.0304 24.1161 60.3573 23.9947L59.853 21.688C59.6662 21.7254 59.3207 21.8094 58.8724 21.8094C57.9665 21.8094 57.154 21.5106 57.154 19.895V12.0036H60.0958V9.76226Z" fill="white"/>
<path d="M69.0728 24.3963C73.1165 24.3963 75.7594 21.4359 75.7594 16.9999C75.7594 12.5359 73.1165 9.57548 69.0728 9.57548C65.0291 9.57548 62.3862 12.5359 62.3862 16.9999C62.3862 21.4359 65.0291 24.3963 69.0728 24.3963ZM69.0821 22.0522C66.4392 22.0522 65.2065 19.7455 65.2065 16.9906C65.2065 14.2449 66.4392 11.9102 69.0821 11.9102C71.7064 11.9102 72.9391 14.2449 72.9391 16.9906C72.9391 19.7455 71.7064 22.0522 69.0821 22.0522Z" fill="white"/>
<path d="M78.2963 6.57458H79.0683V4.08421H80.4629C80.5189 4.08421 80.5718 4.08421 80.6248 4.0811L81.9696 6.57458H82.8661L81.4248 3.94101C82.2373 3.66396 82.6171 3.0009 82.6171 2.15417C82.6171 1.02728 81.9446 0.19923 80.4504 0.19923H78.2963V6.57458ZM79.0683 3.38691V0.884082H80.4255C81.459 0.884082 81.8575 1.38838 81.8575 2.15417C81.8575 2.91996 81.459 3.38691 80.438 3.38691H79.0683Z" fill="white"/>
<path d="M86.8172 4.61964C86.8172 5.51617 86.1324 5.92708 85.5845 5.92708C84.9743 5.92708 84.5385 5.47882 84.5385 4.78151V1.79307H83.8039V4.83132C83.8039 6.0516 84.4514 6.63684 85.3479 6.63684C86.0701 6.63684 86.5433 6.25083 86.7674 5.76521H86.8172V6.57458H87.5519V1.79307H86.8172V4.61964Z" fill="white"/>
<path d="M92.2844 2.86393C92.054 2.1853 91.5372 1.73081 90.5909 1.73081C89.5823 1.73081 88.8352 2.30359 88.8352 3.11296C88.8352 3.77291 89.2274 4.21495 90.1053 4.42041L90.9022 4.60719C91.3847 4.71925 91.612 4.94961 91.612 5.27959C91.612 5.6905 91.1761 6.0267 90.4913 6.0267C89.8905 6.0267 89.5138 5.76832 89.3831 5.25468L88.6858 5.42901C88.857 6.24149 89.5263 6.6742 90.5037 6.6742C91.6151 6.6742 92.3715 6.06717 92.3715 5.24223C92.3715 4.57606 91.9544 4.15581 91.1014 3.94724L90.3917 3.77291C89.8251 3.63283 89.5699 3.44294 89.5699 3.07561C89.5699 2.6647 90.0057 2.36585 90.5909 2.36585C91.2322 2.36585 91.4968 2.72073 91.6244 3.05071L92.2844 2.86393Z" fill="white"/>
<path d="M96.8643 2.86393C96.6339 2.1853 96.1172 1.73081 95.1709 1.73081C94.1623 1.73081 93.4152 2.30359 93.4152 3.11296C93.4152 3.77291 93.8074 4.21495 94.6852 4.42041L95.4822 4.60719C95.9647 4.71925 96.1919 4.94961 96.1919 5.27959C96.1919 5.6905 95.7561 6.0267 95.0712 6.0267C94.4704 6.0267 94.0938 5.76832 93.963 5.25468L93.2657 5.42901C93.4369 6.24149 94.1062 6.6742 95.0837 6.6742C96.195 6.6742 96.9515 6.06717 96.9515 5.24223C96.9515 4.57606 96.5343 4.15581 95.6814 3.94724L94.9716 3.77291C94.4051 3.63283 94.1498 3.44294 94.1498 3.07561C94.1498 2.6647 94.5856 2.36585 95.1709 2.36585C95.8121 2.36585 96.0767 2.72073 96.2044 3.05071L96.8643 2.86393Z" fill="white"/>
<path d="M98.0574 6.57458H98.792V1.79307H98.0574V6.57458ZM98.4309 0.996149C98.7173 0.996149 98.9539 0.772015 98.9539 0.498074C98.9539 0.224134 98.7173 0 98.4309 0C98.1445 0 97.9079 0.224134 97.9079 0.498074C97.9079 0.772015 98.1445 0.996149 98.4309 0.996149Z" fill="white"/>
<path d="M101.545 6.68665C102.379 6.68665 102.815 6.23838 102.964 5.92708H103.002V6.57458H103.736V3.42426C103.736 1.90513 102.578 1.73081 101.968 1.73081C101.246 1.73081 100.424 1.97985 100.05 2.85148L100.748 3.10051C100.91 2.75186 101.293 2.37831 101.993 2.37831C102.668 2.37831 103.002 2.7363 103.002 3.34955V3.37445C103.002 3.72933 102.64 3.6982 101.769 3.81027C100.882 3.92545 99.9135 4.12156 99.9135 5.21733C99.9135 6.15122 100.636 6.68665 101.545 6.68665ZM101.657 6.0267C101.071 6.0267 100.648 5.76521 100.648 5.25468C100.648 4.69435 101.159 4.52002 101.731 4.44531C102.043 4.40796 102.877 4.3208 103.002 4.17137V4.84377C103.002 5.44146 102.528 6.0267 101.657 6.0267Z" fill="white"/>
</svg>
